X: 3
T:Torth o Fara
T:Loaf of Bread
M:6/8
L:1/8
Q:140
C:Trad
S:Cat's Claw
R:Jig
A:Wales
Z:brian_martin12345@yahoo.com
K:G
D|G2GG2A|GFED2D|G2GB2B|DEFG2:||
G|B2BB2B|d2dA2A|!B2BB2B|dcBA2D|
G2GG2A|GFED2D|GGGB2B|DEFG2||
